X: 2
T:Home, Sweet Home 1
M:C
L: 1/4
Q: 1/2=60
K: D
 z4 | (d/e/) | (f3/2g/) (ga) | a2(fa) | (g3/2f/g)e | f2 z (d/e/) | (f3/2g/) (ga)| a2 (fa) | (g3/2f/g) e|
 d3 a | (d'3/2c') (ba) | a2 (fa) | (g3/2f/g) e | f3 a|  (d'3/2c') (ba) | a2 (fa) | (g3/2f/)(gf)| d3 |
